Sardi Mono Papirus Dark/16x16/actions/edit-paste-in-place.svg

<?xml version="1.0" encoding="UTF-8" standalone="no"?>
<svg xmlns="http://www.w3.org/2000/svg" width="16" height="16" viewBox="0 0 16 16">
 <defs>
  <style type="text/css" id="current-color-scheme">
   .ColorScheme-Text { color:#d3dae3; }
  </style>
 </defs>
 <path style="fill:currentColor;opacity:1" class="ColorScheme-Text" d="M 8 1 C 5.2386 1 3 3.0887156 3 5.6660156 C 3.002 6.2218156 3.1108125 6.7726688 3.3203125 7.2929688 C 3.4720125 7.6841688 3.77685 8.1171156 3.96875 8.4160156 L 8 15 L 12.03125 8.4199219 C 12.34825 8.0519219 12.484594 7.6611687 12.683594 7.2929688 C 12.891594 6.7725688 12.999 6.2216156 13 5.6660156 C 13 3.0887156 10.761 1 8 1 z M 8 3 C 8.9153 3 9.7801094 3.4178656 10.349609 4.1347656 C 10.473609 4.2914656 10.582828 4.4602719 10.673828 4.6386719 C 10.855828 4.9962719 10.964188 5.3869094 10.992188 5.7871094 C 10.997188 5.8580094 11 5.929 11 6 C 11 6.3006 10.954234 6.5996188 10.865234 6.8867188 C 10.816234 7.0426187 10.753687 7.1941438 10.679688 7.3398438 C 10.670687 7.3582437 10.663297 7.3763312 10.654297 7.3945312 C 10.136297 8.3811312 9.1143 8.9993 8 9 C 6.8857 8.9993 5.8637031 8.3811312 5.3457031 7.3945312 C 5.3012031 7.3099312 5.2608094 7.2231656 5.2246094 7.1347656 L 5.21875 7.1210938 C 5.18575 7.0384937 5.1564594 6.9544406 5.1308594 6.8691406 C 5.1268594 6.8574406 5.1229406 6.8457844 5.1191406 6.8339844 C 5.0969406 6.7540844 5.078 6.6732969 5.0625 6.5917969 C 5.0585 6.5748969 5.0545813 6.5579156 5.0507812 6.5410156 C 5.0353813 6.4569156 5.023625 6.3722094 5.015625 6.2871094 C 5.013625 6.2728094 5.0137187 6.2585406 5.0117188 6.2441406 C 5.0047188 6.1629406 5.0007 6.0815 5 6 C 5.0002 5.9002 5.005025 5.8004719 5.015625 5.7011719 C 5.096225 4.8943719 5.4998656 4.1546906 6.1347656 3.6503906 C 6.2914656 3.5257906 6.4602719 3.4171719 6.6386719 3.3261719 C 7.0603719 3.1115719 7.5268 2.9998 8 3 z"/>
</svg>

<?xml version="1.0" encoding="UTF-8" standalone="no"?>
<!-- Created with Inkscape (http://www.inkscape.org/) -->
<svg id="svg3049" xmlns:rdf="http://www.w3.org/1999/02/22-rdf-syntax-ns#" xmlns="http://www.w3.org/2000/svg" height="16" width="16" version="1.1" xmlns:cc="http://creativecommons.org/ns#" xmlns:dc="http://purl.org/dc/elements/1.1/">
 <defs id="defs3051">
  <style id="current-color-scheme" type="text/css">.ColorScheme-Text {
        color:#4d4d4d;
      }
      .ColorScheme-Background {
        color:#eff0f1;
      }
      .ColorScheme-Highlight {
        color:#3daee9;
      }
      .ColorScheme-ViewText {
        color:#31363b;
      }
      .ColorScheme-ViewBackground {
        color:#fcfcfc;
      }
      .ColorScheme-ViewHover {
        color:#93cee9;
      }
      .ColorScheme-ViewFocus{
        color:#3daee9;
      }
      .ColorScheme-ButtonText {
        color:#31363b;
      }
      .ColorScheme-ButtonBackground {
        color:#eff0f1;
      }
      .ColorScheme-ButtonHover {
        color:#93cee9;
      }
      .ColorScheme-ButtonFocus{
        color:#3daee9;
      }</style>
 </defs>
 <metadata id="metadata3054">
  <rdf:RDF>
   <cc:Work rdf:about="">
    <dc:format>image/svg+xml</dc:format>
    <dc:type rdf:resource="http://purl.org/dc/dcmitype/StillImage"/>
    <dc:title/>
   </cc:Work>
  </rdf:RDF>
 </metadata>
 <g id="layer1" transform="translate(-421.71 -531.79)">
  <path id="path4142" opacity=".72" style="color:#4d4d4d" d="m8 1c-2.7614 0-5 2.0887-5 4.666 0.002 0.5558 0.1108 1.1067 0.3203 1.627 0.1517 0.3912 0.4566 0.8241 0.6485 1.123l4.0312 6.584 4.031-6.5801c0.317-0.368 0.454-0.7587 0.653-1.1269 0.208-0.5204 0.315-1.0714 0.316-1.627 0-2.5773-2.239-4.666-5-4.666zm0 2c0.9153 0 1.7805 0.4179 2.35 1.1348 0.124 0.1567 0.233 0.3255 0.324 0.5039 0.182 0.3576 0.29 0.7482 0.318 1.1484 0.005 0.0709 0.008 0.1419 0.008 0.2129 0 0.3006-0.046 0.5996-0.135 0.8867-0.049 0.1559-0.111 0.3074-0.185 0.4531-0.009 0.0184-0.017 0.0365-0.026 0.0547-0.518 0.9866-1.5397 1.6048-2.654 1.6055-1.1143-0.0007-2.1363-0.6189-2.6543-1.6055-0.0445-0.0846-0.0849-0.1713-0.1211-0.2597l-0.0058-0.0137c-0.033-0.0826-0.0623-0.1667-0.0879-0.252-0.004-0.0117-0.008-0.0233-0.0118-0.0351-0.0222-0.0799-0.0411-0.1607-0.0566-0.2422-0.004-0.0169-0.0079-0.0339-0.0117-0.0508-0.0154-0.0841-0.0272-0.1688-0.0352-0.2539-0.002-0.0143-0.0019-0.0286-0.0039-0.043-0.007-0.0812-0.011-0.1626-0.0117-0.2441 0.0002-0.0998 0.005-0.1995 0.0156-0.2988 0.0806-0.8068 0.4843-1.5465 1.1192-2.0508 0.1567-0.1246 0.3255-0.2332 0.5039-0.3242 0.4217-0.2146 0.8881-0.3264 1.3613-0.3262z" transform="translate(421.71 531.79)" fill="#fff"/>
 </g>
</svg>
